icons/octoface-16.svg

<svg width="16" height="16" viewBox="0 0 16 16" fill="none" xmlns="http://www.w3.org/2000/svg">
<path fill-rule="evenodd" clip-rule="evenodd" d="M1.32604 1.97256C1.50572 1.33895 2.16126 0.952464 2.81569 1.141C3.20287 1.25254 3.79334 1.44762 4.39068 1.74345C4.97728 2.03396 5.63402 2.45231 6.09143 3.03872C6.1131 3.0665 6.1334 3.09467 6.1524 3.12315C6.72109 3.04286 7.33606 3 8 3C8.66919 3 9.28861 3.03732 9.86106 3.10848C9.87716 3.08499 9.89417 3.06172 9.91211 3.03872C10.3695 2.45231 11.0263 2.03396 11.6129 1.74345C12.2102 1.44762 12.8007 1.25254 13.1878 1.141C13.8423 0.952464 14.4978 1.33895 14.6775 1.97256C14.8174 2.46574 15.0342 3.32046 15.1568 4.26277C15.2355 4.86721 15.2804 5.54339 15.2262 6.19887C15.7684 7.17564 16 8.30886 16 9.5C16 13 14.5 15 8 15C1.5 15 0 13 0 9.5C0 8.46566 0.237745 7.37189 0.795204 6.38262C0.714994 5.67082 0.760715 4.92389 0.846723 4.26277C0.969311 3.32046 1.18617 2.46574 1.32604 1.97256ZM8.00008 13.0651C14.0001 13.0651 14.5001 11.0651 14.0001 8.79589C13.3628 5.90373 11.2501 5 8.00008 5C4.75008 5 2.63733 5.90373 2.00008 8.79589C1.50009 11.0651 2.00008 13.0651 8.00008 13.0651Z" fill="black"/>
<path d="M4 8C4 7.44772 4.44772 7 5 7C5.55228 7 6 7.44772 6 8V9C6 9.55228 5.55228 10 5 10C4.44772 10 4 9.55228 4 9V8Z" fill="black"/>
<path d="M6.07765 10.492C5.99536 10.2284 6.22386 10 6.5 10H9.5C9.77614 10 10.0046 10.2284 9.92235 10.492C9.66897 11.3036 8.83448 12 8 12C7.16552 12 6.33103 11.3036 6.07765 10.492Z" fill="black"/>
<path d="M10 8C10 7.44772 10.4477 7 11 7C11.5523 7 12 7.44772 12 8V9C12 9.55228 11.5523 10 11 10C10.4477 10 10 9.55228 10 9V8Z" fill="black"/>
</svg>

<svg xmlns="http://www.w3.org/2000/svg" width="16" height="16" viewBox="0 0 16 16"><path fill-rule="evenodd" d="M1.326 1.973a1.2 1.2 0 011.49-.832c.387.112.977.307 1.575.602.586.291 1.243.71 1.7 1.296.022.027.042.056.061.084A13.22 13.22 0 018 3c.67 0 1.289.037 1.861.108l.051-.07c.457-.586 1.114-1.004 1.7-1.295a9.654 9.654 0 011.576-.602 1.2 1.2 0 011.49.832c.14.493.356 1.347.479 2.29.079.604.123 1.28.07 1.936.541.977.773 2.11.773 3.301C16 13 14.5 15 8 15s-8-2-8-5.5c0-1.034.238-2.128.795-3.117-.08-.712-.034-1.46.052-2.12.122-.943.34-1.797.479-2.29zM8 13.065c6 0 6.5-2 6-4.27C13.363 5.905 11.25 5 8 5s-5.363.904-6 3.796c-.5 2.27 0 4.27 6 4.27z"/><path d="M4 8a1 1 0 012 0v1a1 1 0 01-2 0V8zm2.078 2.492c-.083-.264.146-.492.422-.492h3c.276 0 .505.228.422.492C9.67 11.304 8.834 12 8 12c-.834 0-1.669-.696-1.922-1.508zM10 8a1 1 0 112 0v1a1 1 0 11-2 0V8z"/></svg>
